X: 31667
T: Parry Sound, The
R: polka
M: 2/4
K: Gmajor
Bc|d2b2 a2g2|d6 (3cBA|G2B2 d2f2|a4 e4|
e2c'2 c'2e2|f6e2|dedc B2_B2|B4 B2c2|
d2b2 a2g2|d6 (3cBA|G2B2 d2f2|a4 e4|
e2c'2 c'2e2|f6e2|dedc A2B2|G4 G2:|
|:Bc|d2G2 B2Bc|d2G2 B2G2|FGAB c2Bc|ed^ce d=cB=c|
d2G2 B2Bc|d2G2 B2G2|FGAB cAFA|G2B2 G2:|

